actions/48/go-previous.svg

<?xml version="1.0" encoding="UTF-8" standalone="no"?>
<!-- Created with Inkscape (http://www.inkscape.org/) -->

<svg
   xmlns:svg="http://www.w3.org/2000/svg"
   xmlns="http://www.w3.org/2000/svg"
   xmlns:xlink="http://www.w3.org/1999/xlink"
   version="1.1"
   width="48"
   height="48"
   id="svg2497">
  <defs
     id="defs2499">
    <linearGradient
       id="linearGradient4222">
      <stop
         id="stop4224"
         style="stop-color:white;stop-opacity:1"
         offset="0" />
      <stop
         id="stop4226"
         style="stop-color:white;stop-opacity:0"
         offset="1" />
    </linearGradient>
    <linearGradient
       x1="28.62199"
       y1="18.218788"
       x2="28.62199"
       y2="49.56282"
       id="linearGradient3194"
       xlink:href="#linearGradient4222"
       gradientUnits="userSpaceOnUse"
       gradientTransform="matrix(-1.3106532,0,0,1.2884463,57.824782,-9.9439155)" />
    <linearGradient
       id="linearGradient2264">
      <stop
         id="stop2266"
         style="stop-color:#d7e866;stop-opacity:1"
         offset="0" />
      <stop
         id="stop2268"
         style="stop-color:#8cab2a;stop-opacity:1"
         offset="1" />
    </linearGradient>
    <linearGradient
       x1="22.181572"
       y1="14.499924"
       x2="22.181572"
       y2="44.051018"
       id="linearGradient3192"
       xlink:href="#linearGradient2264"
       gradientUnits="userSpaceOnUse"
       gradientTransform="matrix(1.1300621,0,0,1.1160684,-0.5665555,-3.1639481)" />
    <linearGradient
       id="linearGradient5105-262-943-861">
      <stop
         id="stop2487"
         style="stop-color:#0d0d0d;stop-opacity:1"
         offset="0" />
      <stop
         id="stop2489"
         style="stop-color:#0d0d0d;stop-opacity:0"
         offset="1" />
    </linearGradient>
    <radialGradient
       cx="11.25"
       cy="19.03125"
       r="8.0625"
       fx="11.25"
       fy="19.03125"
       id="radialGradient2628"
       xlink:href="#linearGradient5105-262-943-861"
       gradientUnits="userSpaceOnUse"
       gradientTransform="matrix(1,0,0,0.282946,0,13.64644)" />
  </defs>
  <g
     id="layer1">
    <g
       transform="translate(0.02914034,0.05443139)"
       id="g2577"
       style="display:inline">
      <g
         transform="translate(-78.10831,-36.954333)"
         id="g2579" />
      <g
         transform="translate(-78.10831,-36.954333)"
         id="g2581"
         style="display:inline" />
      <g
         transform="translate(-206.6385,-8.427334)"
         id="g2583" />
      <g
         transform="translate(-206.6385,-8.427334)"
         id="g2585" />
      <g
         transform="translate(-206.6385,-8.427334)"
         id="g2587" />
      <g
         transform="translate(-285.63611,-16.782179)"
         id="g2589"
         style="display:inline" />
      <g
         transform="translate(-285.63611,-16.782179)"
         id="g2591" />
      <g
         transform="translate(-285.63611,-16.782179)"
         id="g2593"
         style="display:inline" />
      <g
         transform="translate(-129.11181,-7.874573)"
         id="g2595" />
      <g
         transform="translate(39.2169,-2.614304)"
         id="g2597" />
      <g
         transform="translate(-314.9727,-42.827302)"
         id="g2599" />
      <g
         transform="translate(-314.9727,-42.827302)"
         id="g2601"
         style="display:inline" />
      <g
         transform="translate(-314.9727,-42.827302)"
         id="g2603" />
      <g
         transform="translate(-283.53559,-28.586205)"
         id="g2605"
         style="display:inline" />
      <g
         transform="translate(-283.53559,-28.586205)"
         id="g2607" />
      <g
         transform="translate(-283.53559,-28.586205)"
         id="g2609"
         style="display:inline" />
      <g
         transform="translate(-127.01129,-19.678599)"
         id="g2611" />
      <g
         transform="translate(41.31742,-14.41833)"
         id="g2613" />
      <g
         transform="translate(-312.87218,-54.631328)"
         id="g2615" />
      <g
         transform="translate(-312.87218,-54.631328)"
         id="g2617"
         style="display:inline" />
      <g
         transform="translate(-312.87218,-54.631328)"
         id="g2619" />
      <path
         d="m 19.3125,19.03125 a 8.0625,2.28125 0 1 1 -16.125,0 8.0625,2.28125 0 1 1 16.125,0 z"
         transform="matrix(-2.9695155,0,0,2.8861277,57.40705,-14.065028)"
         id="path2621"
         style="opacity:0.16292138;fill:url(#radialGradient2628);fill-opacity:1;fill-rule:nonzero;stroke:none;stroke-width:1;marker:none;visibility:visible;display:inline;overflow:visible" />
      <g
         transform="translate(-1,0)"
         id="g3188">
        <path
           d="M 27.5,1.5027285 1.5027285,23.555266 27.5,45.497271 27.5,34.5 l 19.997271,0 0,-22 -19.997271,0 0,-10.9972715 z"
           id="path2624"
           style="fill:url(#linearGradient3192);fill-opacity:1;fill-rule:nonzero;stroke:#548820;stroke-width:1.00545704;stroke-linecap:round;stroke-linejoin:round;stroke-miterlimit:4;stroke-opacity:1;stroke-dasharray:none;stroke-dashoffset:0;marker:none;visibility:visible;display:inline;overflow:visible" />
        <path
           d="M 26.5,3.5 2.9999995,23.580749 26.5,43.5 l 0,-10 20,0 0,-20 -20,0 0,-10 z"
           id="path2626"
           style="opacity:0.35400008;fill:none;stroke:url(#linearGradient3194);stroke-width:1.00545704;stroke-linecap:butt;stroke-linejoin:round;stroke-miterlimit:4;stroke-opacity:1;stroke-dasharray:none;stroke-dashoffset:0;marker:none;visibility:visible;display:inline;overflow:visible" />
      </g>
    </g>
  </g>
</svg>

<?xml version="1.0" encoding="UTF-8" standalone="no"?>
<!-- Created with Inkscape (http://www.inkscape.org/) -->
<svg
   xmlns:dc="http://purl.org/dc/elements/1.1/"
   xmlns:cc="http://creativecommons.org/ns#"
   xmlns:rdf="http://www.w3.org/1999/02/22-rdf-syntax-ns#"
   xmlns:svg="http://www.w3.org/2000/svg"
   xmlns="http://www.w3.org/2000/svg"
   xmlns:xlink="http://www.w3.org/1999/xlink"
   xmlns:sodipodi="http://sodipodi.sourceforge.net/DTD/sodipodi-0.dtd"
   xmlns:inkscape="http://www.inkscape.org/namespaces/inkscape"
   width="48px"
   height="48px"
   id="svg2497"
   sodipodi:version="0.32"
   inkscape:version="0.46"
   sodipodi:docname="go-previous.svg"
   inkscape:output_extension="org.inkscape.output.svg.inkscape">
  <defs
     id="defs2499">
    <linearGradient
       inkscape:collect="always"
       id="linearGradient4222">
      <stop
         style="stop-color:#ffffff;stop-opacity:1;"
         offset="0"
         id="stop4224" />
      <stop
         style="stop-color:#ffffff;stop-opacity:0;"
         offset="1"
         id="stop4226" />
    </linearGradient>
    <linearGradient
       y2="49.56282"
       x2="28.62199"
       y1="18.218788"
       x1="28.62199"
       gradientTransform="matrix(-1.3106532,0,0,1.2884463,57.824782,-9.9439155)"
       gradientUnits="userSpaceOnUse"
       id="linearGradient3194"
       xlink:href="#linearGradient4222"
       inkscape:collect="always" />
    <linearGradient
       id="linearGradient2264">
      <stop
         style="stop-color:#d7e866;stop-opacity:1;"
         offset="0"
         id="stop2266" />
      <stop
         style="stop-color:#8cab2a;stop-opacity:1;"
         offset="1"
         id="stop2268" />
    </linearGradient>
    <linearGradient
       y2="44.051018"
       x2="22.181572"
       y1="14.499924"
       x1="22.181572"
       gradientTransform="matrix(1.1300621,0,0,1.1160684,-0.5665555,-3.1639481)"
       gradientUnits="userSpaceOnUse"
       id="linearGradient3192"
       xlink:href="#linearGradient2264"
       inkscape:collect="always" />
    <linearGradient
       inkscape:collect="always"
       id="linearGradient5105-262-943-861">
      <stop
         offset="0"
         id="stop2487"
         style="stop-color:#0d0d0d;stop-opacity:1;" />
      <stop
         offset="1"
         id="stop2489"
         style="stop-color:#0d0d0d;stop-opacity:0;" />
    </linearGradient>
    <radialGradient
       inkscape:collect="always"
       xlink:href="#linearGradient5105-262-943-861"
       id="radialGradient2628"
       gradientUnits="userSpaceOnUse"
       gradientTransform="matrix(1,0,0,0.282946,0,13.64644)"
       cx="11.25"
       cy="19.03125"
       fx="11.25"
       fy="19.03125"
       r="8.0625" />
  </defs>
  <sodipodi:namedview
     id="base"
     pagecolor="#ffffff"
     bordercolor="#666666"
     borderopacity="1.0"
     inkscape:pageopacity="0.0"
     inkscape:pageshadow="2"
     inkscape:zoom="7"
     inkscape:cx="24"
     inkscape:cy="24"
     inkscape:current-layer="layer1"
     showgrid="true"
     inkscape:grid-bbox="true"
     inkscape:document-units="px"
     inkscape:window-width="640"
     inkscape:window-height="720"
     inkscape:window-x="800"
     inkscape:window-y="24" />
  <metadata
     id="metadata2502">
    <rdf:RDF>
      <cc:Work
         rdf:about="">
        <dc:format>image/svg+xml</dc:format>
        <dc:type
           rdf:resource="http://purl.org/dc/dcmitype/StillImage" />
      </cc:Work>
    </rdf:RDF>
  </metadata>
  <g
     id="layer1"
     inkscape:label="Layer 1"
     inkscape:groupmode="layer">
    <g
       style="display:inline"
       inkscape:label="Layer 1"
       id="g2577"
       transform="translate(2.9140339e-2,5.4431394e-2)">
      <g
         transform="translate(-78.10831,-36.954333)"
         inkscape:label="Shadow"
         id="g2579" />
      <g
         transform="translate(-78.10831,-36.954333)"
         id="g2581"
         inkscape:label="Base"
         style="display:inline" />
      <g
         transform="translate(-206.6385,-8.427334)"
         id="g2583"
         inkscape:label="Layer 1" />
      <g
         transform="translate(-206.6385,-8.427334)"
         inkscape:label="shadiw"
         id="g2585" />
      <g
         transform="translate(-206.6385,-8.427334)"
         inkscape:label="white"
         id="g2587" />
      <g
         inkscape:label="Layer 1"
         id="g2589"
         style="display:inline"
         transform="translate(-285.63611,-16.782179)" />
      <g
         id="g2591"
         inkscape:label="bottom"
         transform="translate(-285.63611,-16.782179)" />
      <g
         id="g2593"
         inkscape:label="back"
         style="display:inline"
         transform="translate(-285.63611,-16.782179)" />
      <g
         transform="translate(-129.11181,-7.874573)"
         inkscape:label="shadiw"
         id="g2595" />
      <g
         transform="translate(39.2169,-2.614304)"
         inkscape:label="shadiw"
         id="g2597" />
      <g
         id="g2599"
         inkscape:label="Shadow"
         transform="translate(-314.9727,-42.827302)" />
      <g
         style="display:inline"
         inkscape:label="Base"
         id="g2601"
         transform="translate(-314.9727,-42.827302)" />
      <g
         id="g2603"
         inkscape:label="new"
         transform="translate(-314.9727,-42.827302)" />
      <g
         inkscape:label="Layer 1"
         id="g2605"
         style="display:inline"
         transform="translate(-283.53559,-28.586205)" />
      <g
         id="g2607"
         inkscape:label="bottom"
         transform="translate(-283.53559,-28.586205)" />
      <g
         id="g2609"
         inkscape:label="back"
         style="display:inline"
         transform="translate(-283.53559,-28.586205)" />
      <g
         transform="translate(-127.01129,-19.678599)"
         inkscape:label="shadiw"
         id="g2611" />
      <g
         transform="translate(41.31742,-14.41833)"
         inkscape:label="shadiw"
         id="g2613" />
      <g
         id="g2615"
         inkscape:label="Shadow"
         transform="translate(-312.87218,-54.631328)" />
      <g
         style="display:inline"
         inkscape:label="Base"
         id="g2617"
         transform="translate(-312.87218,-54.631328)" />
      <g
         id="g2619"
         inkscape:label="new"
         transform="translate(-312.87218,-54.631328)" />
      <path
         sodipodi:rx="8.0625"
         sodipodi:ry="2.28125"
         style="opacity:0.16292138;fill:url(#radialGradient2628);fill-opacity:1;fill-rule:nonzero;stroke:none;stroke-width:1;stroke-linecap:butt;stroke-linejoin:miter;marker:none;marker-start:none;marker-mid:none;marker-end:none;stroke-miterlimit:4;stroke-dasharray:none;stroke-dashoffset:0;stroke-opacity:1;visibility:visible;display:inline;overflow:visible"
         sodipodi:type="arc"
         d="M 19.3125,19.03125 A 8.0625,2.28125 0 1 1 3.1875,19.03125 A 8.0625,2.28125 0 1 1 19.3125,19.03125 z"
         transform="matrix(-2.9695155,0,0,2.8861277,57.40705,-14.065028)"
         sodipodi:cy="19.03125"
         sodipodi:cx="11.25"
         id="path2621" />
      <g
         transform="translate(-1,0)"
         id="g3188">
        <path
           id="path2624"
           d="M 27.5,1.5027285 L 1.5027285,23.555266 L 27.5,45.497271 L 27.5,34.5 L 47.497271,34.5 L 47.497271,12.5 L 27.5,12.5 L 27.5,1.5027285 z"
           style="fill:url(#linearGradient3192);fill-opacity:1;fill-rule:nonzero;stroke:#548820;stroke-width:1.00545704000000002;stroke-linecap:round;stroke-linejoin:round;marker:none;marker-start:none;marker-mid:none;marker-end:none;stroke-miterlimit:4;stroke-dasharray:none;stroke-dashoffset:0;stroke-opacity:1;visibility:visible;display:inline;overflow:visible"
           sodipodi:nodetypes="cccccccc" />
        <path
           id="path2626"
           d="M 26.5,3.5 L 2.9999995,23.580749 L 26.5,43.5 L 26.5,33.5 L 46.5,33.5 L 46.5,13.5 L 26.5,13.5 L 26.5,3.5 z"
           style="opacity:0.35400002;fill:none;fill-opacity:1;fill-rule:nonzero;stroke:url(#linearGradient3194);stroke-width:1.00545704;stroke-linecap:butt;stroke-linejoin:round;marker:none;marker-start:none;marker-mid:none;marker-end:none;stroke-miterlimit:4;stroke-dasharray:none;stroke-dashoffset:0;stroke-opacity:1;visibility:visible;display:inline;overflow:visible"
           sodipodi:nodetypes="cccccccc" />
      </g>
    </g>
  </g>
</svg>
